X:1
T:Thy Life, 66.6.66
T:Thy Life, 66.6.66
T:George Alexander Macfarren (1813-1887)
T:Public Domain Courtesy of the Cyber Hymnal™
C:George Alexander Macfarren (1813-1887)
Z:Public Domain
Z:Courtesy of the Cyber Hymnal™
%%score ( 1 2 ) ( 3 4 )
L:1/8
Q:1/4=110
M:4/4
K:F
V:1 treble 
V:2 treble 
V:3 bass 
V:4 bass 
V:1
 [CF]2 | [FB]2 [CG]2 [CA]2 [CF]2 | D6 [Dd]2 | [Gc]2 [FA]2 [FB]2 [EG]2 | [EG]4 [FA]2 [CF]2 | F6 F2 | %6
 [Fc]2 [FA]2 F2 [Fc]2 | [Gc]2 G2 [DG]2 [DF]2 | E6 [DF]2 | [DB]2 [DG]2 [EA]2 [DF]2 | D4 [Fd]3 [FB] | %11
 [Fc]4 [FA]2 [EG]2 | [FA]6 |] %13
V:2
 x2 | x8 | D6 x2 | x8 | x8 | F6 F2 | x4 F2 x2 | x2 G2 x4 | E6 x2 | x8 | D4 x4 | x8 | x6 |] %13
V:3
 [F,A,]2 | [D,B,]2 [E,C]2 [F,A,]2 [A,C]2 | B,6 [G,B,]2 | [E,C]2 [F,C]2 [B,,D]2 [C,C]2 | %4
 [F,C]6 [F,A,]2 | ([F,A,]2 [G,B,]2 [A,C]2) [B,D]2 | [A,C]2 [F,C]2 [A,C]2 [F,A,]2 | %7
 C2 z [G,=B,]2 [G,B,]2 x | [C,C]6 [D,A,]2 | [G,,B,]2 [B,,D]2 [A,,^C]2 [D,A,]2 | %10
 [B,,B,]4 [B,D]3 [G,D] | [A,C]4 [C,C]2 [C,C]2 | [F,C]6 |] %13
V:4
 x2 | x8 | B,6 x2 | x8 | x8 | x8 | x8 | E,3 (C2 F,) x2 | x8 | x8 | x8 | x8 | x6 |] %13

